X:33
T: Kurtafarkú fecske
K: F
M: 4/4
L: 1/4
gdgd | g2 a2 | 
g>f e<d | c2 d2 | 
GGBB | cdcB | 
d>c B<A | G2 G2 | 
 
